src/images/facebook.svg

<svg width="23" height="22" viewBox="0 0 23 22" fill="none" xmlns="http://www.w3.org/2000/svg">
<path fill-rule="evenodd" clip-rule="evenodd" d="M22.3305 11.3128C22.3305 5.37531 17.3311 0.561035 11.1653 0.561035C4.99944 0.561035 0 5.37531 0 11.3128C0 16.679 4.08229 21.1271 9.42068 21.9344V14.4216H6.58501V11.3128H9.42068V8.94402C9.42068 6.24985 11.088 4.76045 13.6381 4.76045C14.8598 4.76045 16.1378 4.97068 16.1378 4.97068V7.61685H14.7292C13.343 7.61685 12.9093 8.44531 12.9093 9.29681V11.3128H16.0057L15.5112 14.4216H12.9098V21.9354C18.2482 21.1285 22.3305 16.6805 22.3305 11.3128Z" fill="#274C5B"/>
</svg>

<svg width="23" height="22" fill="none" xmlns="http://www.w3.org/2000/svg"><path fill-rule="evenodd" clip-rule="evenodd" d="M22.33 11.313C22.33 5.375 17.332.56 11.166.56 5 .561 0 5.375 0 11.313c0 5.366 4.082 9.814 9.42 10.621v-7.512H6.586v-3.11h2.836V8.945c0-2.694 1.667-4.184 4.217-4.184 1.222 0 2.5.21 2.5.21v2.647h-1.409c-1.386 0-1.82.828-1.82 1.68v2.016h3.097l-.495 3.109H12.91v7.513c5.338-.806 9.42-5.255 9.42-10.622Z" fill="#274C5B"/></svg>
